X:2
T:Maxwell's Rant
R:country dance
Z:id:hn-countrydance-2
M:2/4
L:1/8
K:G
e/f/ | gG BG | FA Ae/f/ | gG Bd | g3 e/f/ |
gG BG | FA AG/F/ | EG FA | G3 :|
|: d | g>a bg | a/g/f/e/ dd | g>f gb | a3 d |
g>a bg | a/g/f/e/ dg/a/ | bg af | g3 :|


